svg/food_off_outline.svg

<svg xmlns="http://www.w3.org/2000/svg" viewBox="0 0 24 24"><path d="M1 21h15v1c0 .54-.44 1-1 1H2c-.55 0-1-.46-1-1zm19.5 2.31L16 18.83V19H1v-2h13.17l-2-2H1c0-3.24 2.46-5.17 5.38-5.79L.68 3.5 2.1 2.1 13 13l2 2 6.9 6.9zM10.17 13l-2-2c-1.42.06-3.52.56-4.55 2zM23 5h-5V1h-2v4h-5l.23 2h9.56l-1 9.97 1.83 1.83z"/></svg>

<svg xmlns="http://www.w3.org/2000/svg" id="mdi-food-off-outline" viewBox="0 0 24 24"><path d="M1 21H16V22C16 22.54 15.56 23 15 23H2C1.45 23 1 22.54 1 22V21M20.5 23.31L16 18.83V19H1V17H14.17L12.17 15H1C1 11.76 3.46 9.83 6.38 9.21L.68 3.5L2.1 2.1L13 13L15 15L21.9 21.9L20.5 23.31M10.17 13L8.17 11C6.75 11.06 4.65 11.56 3.62 13H10.17M23 5H18V1H16V5H11L11.23 7H20.79L19.79 16.97L21.62 18.8L23 5Z" /></svg>
